X:1
T:Estudio Brillante
T:Estudio Brillante
T:Estudio Brillante
T:de Alard
T:Francisco Tárrega (1852 - 1909)
T:Revisione di Gibbin Fabio
T:Al brillante guitarrista D. Federico Cano
T:© 2015 Gibbin Fabio
T:© 2015 Gibbin Fabio
T:© 2015 Gibbin Fabio
C:Francisco Tárrega
Z:© 2015 Gibbin Fabio
%%score ( 1 2 3 )
L:1/8
Q:1/4=80
M:2/4
K:A
V:1 treble-8 nm="Chitarra classica" snm="Chit. cl."
V:2 treble-8 
V:3 treble-8 
V:1
"^Allegro Moderato""^VII" e4 |:S !0!e2 !0!e!4!f | !0!e2 !0!e!4!f | !0!e2 !0!e"^1/2 II"!4!a | %4
"^VII" !4!c'!1!b"^1/2 II" !4!a!3!g |"^1/2 II" !1!f2 !1!f"^1/2 I"!1!^e | %6
"^1/2 II" !1!f2 !1!f"^1/2 I"!1!^e |"^1/2 II" !1!f2 !1!f!3!g |"^VII" b!3!a !3!g!1!f | !0!e2 !0!eb | %10
"^II" !4!a2 !3!g!1!f | !0!e2 !0!eb |"^II" !4!a2 !0!e!3!f!dacoda! ||"^IV" !1!g2 !1!g!3!a |1 %14
"^4/6 II" (3(!4!a/!3!g/)!1!c/ (3!1!E/!1!c/!3!g/"^II" (3(!3!g/!1!f/)!1!c/ (3!1!A/!1!c/!1!f/ | %15
"^IV" (3(!4!f/!2!e/)!4!c/ (3!3!G/!4!c/!2!e/ (3(!2!e/!1!^d/)!2!^B/ (3(!3!G/!1!F/)!3!^D/ | %16
 (3(!1!C/!2!D/!3!^D/ (3!4!E/)(!1!F/!3!G/ (3!4!A/)(!1!B/!1!=c/ (3!2!^c/!3!d/!4!^d/) :|2 %17
"^IV" !1!g2 !1!g!3!a ||"^VII" b2 bc' | b2 (3b/!4!g/b/ (3(e'/b/)!4!e'/ | %20
 (3(!4!^d'/!1!b/)!0!B/ (3(!4!c'/!1!a/)!0!B/ (3(!4!b/!1!g/)!0!B/ (3(!4!a/!1!f/)!0!B/ | g2 !2!g!4!a | %22
 !4!g2 !4!g"^1/2 II"!1!f |"^1/2 IV" b2 z2 | %24
 (3(!4!^d'/!1!b/)!0!B/ (3(!4!c'/!1!a/)!0!B/ (3(!4!b/!1!g/)!0!B/ (3(!4!a/!1!f/)!0!B/ | g2 !2!g!4!a | %26
 !4!g2 !4!g"^1/2 II"!1!f | !0!e2 !0!e!4!f | !0!e2 !0!B!4!c | !0!B2 !0!e!4!f | !0!e2 !0!B!1!=c | %31
 !0!B2 !0!B!1!=c | !0!B2 !0!B!1!=c | %33
 (3!0!B/!1!G/!0!B/ (3!0!e/!2!g/!1!b/ (3(!4!e'/!3!^d'/)!2!=d'/ (3(!4!b/!1!g/)!0!e/ | %34
 (3(!1!f/!0!e/)!2!d/ (3!1!c/!4!B/!2!A/ (3!1!G/!4!F/!2!E/ (3!0!D/!4!C/!2!B,/!D.S.! || %35
O"^II" !2!=g2 !2!g!4!a | !4!=g!1!f !1!^e!1!f |"^VII" b!3!a !3!g!1!f |"^V" !1!e2 !1!e!4!f | %39
"^VII" !4!g2 c'b |"^V" !1!a2 !1!ab |"^V" c'2 !1!ab |"^IX" c'2 c'd' | c'2 c'd' |"^IX" e'2 e'f' | %45
"^1/2 IX" e'2 c'"^1/2 II"!4!a | !3!g!1!f !0!e!2!d | !4!c2 !4!c!4!d | !4!c2 !4!c!0!B | %49
"^II" !1!A2 !1!c{/!4!e}!2!d |"^II" !1!c2 !0!e"^1/2 I"!1!=f |"^II" !4!a2 !1!c{/!4!e}!2!d | %52
"^II" !1!c2 !0!e"^1/2 I"!1!=f |"^II" !4!a2 !0!e"^1/2 I"!1!=f | %54
"^II" !4!a2 !0!e"_ritard.""^1/2 I"!1!=f |"^1/2 V" !1!a2 z2 | %56
"^1/2 V" (3!3!E/!4!A/!2!c/ (3!1!e/!2!c/!4!A/"^II" (3C/!1!E/!1!A/ (3!1!c/!1!A/!1!E/ | z4 | %58
"_tenuto." !3!!1!!4![dge']2 [dge']2 |"^V" !fermata!!2!!1![cea]4- | [cea]2 z2 |] %61
V:2
 x4 |: (3e/!4!c/!3!A/ (3!2!E/!3!A/!4!c/ (3e/!4!c/!3!A/ (3f/!1!=c/!3!A/ | %2
 (3e/!4!c/!3!A/ (3!2!E/!3!A/!4!c/ (3e/!4!c/!3!A/ (3f/!1!=c/!3!A/ | %3
 (3e/!2!c/!1!A/ (3!1!E/!1!A/!2!c/ (3e/!2!c/!1!A/ (3a/!1!c/!1!A/ | %4
 (3c'/!3!e/!1!A/ (3b/!1!d/!1!A/ (3a/!1!c/!1!A/ (3g/!4!e/!1!A/ | %5
 (3f/!2!d/!1!A/ (3!3!F/!1!A/!2!d/ (3f/!2!d/!1!A/ (3^e/!3!d/!2!A/ | %6
 (3f/!2!d/!1!A/ (3!3!F/!1!A/!2!d/ (3f/!2!d/!1!A/ (3^e/!3!d/!2!A/ | %7
 (3f/!2!d/!1!A/ (3!3!F/!1!A/!2!d/ (3f/!2!d/!1!A/ (3g/!4!e/!1!A/ | %8
 (3!2!b/!4!g/!1!A/ (3a/!4!f/!1!A/ (3g/!2!e/!1!A/ (3f/!1!d/!1!A/ | %9
 (3e/!2!d/!1!E/ (3E,/!1!E/!2!d/ (3e/!3!d/!1!e/ (3!4!b/!3!d/!1!e/ | %10
 (3a/!1!c/!1!A/ (3!1!E/!1!A/!1!c/ (3g/!4!e/!1!A/ (3f/!2!d/!1!A/ | %11
 (3e/!2!d/!1!E/ (3E,/!1!E/!2!d/ (3e/!3!d/!1!e/ (3!4!b/!3!d/!1!e/ | %12
 (3a/!1!c/!1!A/ (3!1!E/!1!A/!1!c/ (3e/!2!c/!1!A/ (3f/!2!c/!1!A/ || %13
 (3g/!1!^d/!2!^B/ (3!3!G/!2!B/!1!d/ (3g/!1!d/!2!B/ (3a/!1!d/!2!B/ |1 E,2 F,2 | G,2 G,2 | x4 :|2 %17
 (3g/!2!e/!4!c/ (3!3!G/!4!c/!2!e/ (3g/!2!e/!4!c/ (3a/!2!e/!4!c/ || %18
 (3!1!b/!1!f/!2!^d/ (3!3!B/!2!d/!1!f/ (3!1!b/!1!f/!2!d/ (3!4!c'/!1!f/!2!d/ | %19
 (3!1!b/!4!g/!3!e/ (3!2!B/!3!e/!4!g/ (3!1!b/g/!1!b/ (3!4!e'/!1!b/e'/ | x4 | %21
 (3!3!g/!0!e/!0!B/ (3!-(!!1!^A/!-)!!1!B/!3!e/ (3g/!3!e/!1!B/ (3a/!3!e/!1!B/ | %22
 (3g/(!3!^d/!0!B/) (3!-(!!2!^A/!-)!!2!B/!3!d/ (3g/!3!d/!2!B/ (3f/!3!d/!1!=A/ | %23
 (3(!4!b/!1!g/!2!e/) (3!1!B/(!3!G/!2!^^F/) (3!3!G/!1!B/!2!e/ (3!1!g/!4!b/!4!e'/ | x4 | %25
 (3!3!g/!0!e/!0!B/ (3!-(!!1!^A/!-)!!1!B/!3!e/ (3g/!3!e/!1!B/ (3a/!3!e/!1!B/ | %26
 (3g/(!3!^d/!0!B/) (3!-(!!2!^A/!-)!!2!B/!3!d/ (3g/!3!d/!2!B/ (3f/!3!d/!1!=A/ | %27
 (3e/!0!B/!1!G/ (3!2!E/!1!G/!0!B/ (3e/!0!B/!1!G/ (3f/!0!B/!3!A/ | %28
 (3e/!0!B/!1!G/ (3!2!E/!1!G/!0!B/ (3B/!1!G/!2!E/ (3c/!3!A/!2!E/ | %29
 (3B/!1!G/!2!E/ (3!2!E/!1!G/!0!B/ (3e/!0!B/!1!G/ (3f/!0!B/!3!A/ | %30
 (3e/!0!B/!1!G/ (3!2!E/!1!G/!0!B/ (3B/!1!G/!2!E/ (3=c/!3!A/!2!E/ | %31
 (3B/!1!G/!2!E/ (3!2!E/!1!G/!0!B/ (3B/!1!G/!2!E/ (3=c/!3!A/!2!E/ | %32
 (3B/!1!G/!2!E/ (3!2!E/!1!G/!0!B/ (3B/!1!G/!2!E/ (3=c/!3!A/!2!E/ | !0!E,4- | E,4 || %35
 (3=g/!1!c/!1!A/ (3!1!E/!1!A/!1!c/ (3g/!1!c/!1!A/ (3a/!1!c/!1!A/ | %36
 (3=g/!3!d/!2!A/ (3f/!3!d/!2!A/ (3^e/!3!d/!2!A/ (3f/!3!d/!2!A/ | %37
 (3!1!b/!3!g/!1!A/ (3a/!4!f/!1!A/ (3g/!2!e/!1!A/ (3f/!1!d/!1!A/ | %38
 (3e/!2!c/!4!A/ (3!3!E/!4!A/!2!c/ (3e/!2!c/!3!A/ (3f/!1!^B/!3!A/ | %39
 (3g/!1!d/!3!B/ (3!1!E/!1!d/!3!g/ (3!4!c'/!3!g/!1!d/ (3!1!b/!3!g/!1!d/ | %40
 (3a/!1!e/!2!c/ (3!3!A/!2!c/!1!e/ (3a/!4!f/!3!d/ (3!4!b/!2!=f/!3!d/ | %41
 (3!4!c'/!1!e/!2!c/ (3!3!A/!2!c/!1!e/ (3a/!3!f/!2!d/ (3!4!b/!3!f/!2!d/ | %42
 (3!1!c'/!1!g/!2!^e/ (3!3!c/!2!e/!1!g/ (3!1!c'/!1!g/!2!e/ (3!3!d'/!1!g/!2!e/ | %43
 (3!1!c'/!2!a/!4!f/ (3!3!c/!4!f/!2!a/ (3!1!c'/!2!a/!4!f/ (3!3!d'/!2!a/!4!f/ | %44
 (3!4!e'/!1!g/!1!e/ (3!3!d/!1!e/!1!g/ (3!4!e'/!1!g/!1!e/ (3!4!f'/!1!g/!1!e/ | %45
 (3!4!e'/!2!a/!1!e/ (3!3!c/!1!e/!2!a/ (3!1!c'/!2!a/!1!e/ (3a/!1!c/!1!A/ | %46
 (3g/!4!e/!1!A/ (3f/!2!d/!1!A/ (3e/!2!c/!1!A/ (3d/!3!B/!1!E/ | %47
 (3c/!3!A/!2!E/ (3(!1!^D/!2!E/)!3!A/ (3c/!3!A/!2!E/ (3d/!3!A/!2!E/ | %48
 (3c/!2!G/!3!E/ (3(!1!^D/!3!E/)!2!G/ (3c/!2!G/!3!E/ (3B/!2!G/!0!=D/ | %49
 (3A/!1!E/!3!C/ (3!3!C/!1!E/!1!A/ (3c/!1!A/!1!E/ (3d/!1!A/!3!F/ | %50
 (3c/!1!A/!1!E/ (3!1!E/!1!A/c/ (3e/!3!c/!2!A/ (3=f/!1!=c/!2!A/ | %51
 (3a/!1!c/!1!A/ (3!1!E/!1!A/!1!c/ (3c/!1!A/!1!E/ (3d/!1!A/!3!F/ | %52
 (3c/!1!A/!1!E/ (3!1!E/!1!A/c/ (3e/!3!c/!2!A/ (3=f/!1!=c/!2!A/ | %53
 (3a/!1!c/!1!A/ (3!1!E/!1!A/!1!c/ (3e/!3!c/!2!A/ (3=f/!1!=c/!2!A/ | %54
 (3a/!1!c/!1!A/ (3!1!E/!1!A/!1!c/ (3e/!3!c/!2!A/ (3=f/!1!=c/!2!A/ | %55
 (3a/!2!c/!1!e/ (3!1!a/!1!e/!2!c/ (3!3!A/!2!c/!1!e/ (3!1!a/!1!e/!2!c/ | E2 !3!C2 | !0!A,4 | %58
 !0!E,2 E,2 | !fermata!!0!A,4- | A,2 z2 |] %61
V:3
 x4 |: !0!A,4 | !0!A,4 | !0!A,4 | A,4 | !4!D4 | !4!D4 | !4!D4 | x4 | !3!G, !0!E,2 z | A,4 | %11
 !3!G, !0!E,2 z | !0!A,4 || !1!G,4 |1 x4 | x4 | x4 :|2 !1!C4 || !1!B,4 | !1!E4 | x4 | !0!E,4 | %22
 B,4 | !0!E,4 | x4 | !0!E,4 | B,4 | !0!E,4 | !0!E,4 | !0!E,4 | !0!E,4 | !0!E,4 | !0!E,4 | x4 | %34
 x4 || !0!A,4 | !0!D4 | x4 | !0!E,4 | !0!E,4 | !0!A,2 !0!D2 | !0!A,2 !0!D2 | !1!C4 | !1!F2 z2 | %44
 !0!E,4 | !0!A,4 | !0!D4 | !0!E,4 | E,4 | A,4 | !0!A,4 | !0!A,4 | !0!A,4 | A,4 | !0!A,4 | A,4 | %56
 x4 | x4 | x4 | x4 | x4 |] %61

